packages/core/src/svgs/tokens/branded/CUBE.svg

<svg width="24" height="24" viewBox="0 0 24 24" fill="none" xmlns="http://www.w3.org/2000/svg">
<path d="M15.384 2.46486L14.8164 2.7027L15.2489 2.96215C15.6002 3.17297 15.9515 3.38378 16.3191 3.55675L16.4056 3.51891C16.9462 3.25946 17.4813 2.99459 18.0111 2.71351C17.5125 2.47077 17.0115 2.23292 16.5083 2L15.384 2.46486ZM13.1029 3.16756L11.6002 3.76216L12.7029 4.55135L14.3623 3.83243L13.1029 3.16217V3.16756ZM15.038 5.49189L15.7137 5.22162C16.0489 5.08108 16.384 4.94055 16.7191 4.81081L18.0435 5.49729L17.7786 5.62703C17.3246 5.84324 16.8759 6.05946 16.4164 6.26487C16.092 6.11352 15.784 5.92973 15.4759 5.75135C15.331 5.6632 15.1849 5.5767 15.038 5.49189ZM9.93532 4.97297C9.31913 5.18919 8.70831 5.3946 8.09749 5.61622C8.58399 5.86486 9.08128 6.1027 9.57863 6.33514C10.0273 6.22162 10.465 6.05405 10.8975 5.89189L11.611 5.63244C11.2314 5.41931 10.8476 5.21386 10.4596 5.01622L10.3785 4.97297C10.2813 4.91892 10.1732 4.86487 10.0651 4.92972L9.93532 4.97297ZM11.6921 6.01621C12.1245 5.84324 12.557 5.67567 13.0056 5.52973L14.5732 6.17838L12.8705 7.04325C12.2938 6.78121 11.7224 6.50727 11.157 6.22162L11.6921 6.01621ZM7.59479 6.44865C7.10831 6.60541 6.62723 6.75676 6.15155 6.92432L6.67048 7.21082C6.9948 7.3946 7.31912 7.57838 7.65966 7.71352C8.20561 7.53514 8.74615 7.34595 9.28669 7.15135L9.71914 6.9946L8.6975 6.47568L8.24345 6.24324L7.59479 6.44865ZM14.8759 7.47569C14.5894 7.31351 14.3084 7.15676 14.0164 7.01081L12.0705 7.81082C12.2813 7.91892 12.4813 8.04325 12.6813 8.16758C12.9678 8.34055 13.2596 8.51893 13.5623 8.66487C13.9948 8.48109 14.411 8.28109 14.8327 8.08109L15.4542 7.7892L14.8759 7.47569ZM5.85966 7.02163L3.89209 7.66487C4.08128 7.7892 4.23803 7.91892 4.38938 8.04325C4.61641 8.22162 4.83804 8.4 5.13533 8.55676L7.33534 7.83243L5.85966 7.02163ZM11.0489 7.67027C10.6921 7.47568 10.33 7.29189 9.95701 7.12973L7.93533 7.8973C8.16365 8.01744 8.39069 8.13997 8.61642 8.26487C8.94075 8.43784 9.26507 8.61082 9.58935 8.77298C10.0218 8.64866 10.4326 8.46487 10.8489 8.27568L11.611 7.95136L11.0543 7.66487L11.0489 7.67027ZM17.8434 7.20541L16.1299 8.01081L16.9732 8.4C17.3948 8.58919 17.8164 8.77838 18.2272 8.9946L18.5624 8.83785C19.0812 8.60541 19.6272 8.35135 20.1083 8.10271L17.8434 7.20541ZM6.85425 8.22162L7.56776 7.96217L8.13533 8.27568L9.2921 8.92973L8.43803 9.30811C8.00561 9.4919 7.55695 9.68109 7.17858 9.86488C6.55844 9.54617 5.96861 9.17166 5.41641 8.74595C5.85425 8.57838 6.36236 8.3946 6.85425 8.22162ZM9.88663 8.93514C10.5407 8.64866 11.2002 8.36757 11.8596 8.0973C12.238 8.24865 12.5894 8.43784 12.9515 8.62703L13.5191 8.91892L12.4002 9.44865L11.5569 9.84319L11.0705 9.58379L9.88663 8.93514ZM3.89209 8.17838C4.43152 8.49695 4.95976 8.83409 5.47587 9.1892L7.27588 10.3783C8.58366 11.2465 9.89357 12.1113 11.2057 12.973C11.1894 14.4 11.1246 15.827 11.065 17.2541C10.9948 18.8379 10.9299 20.4162 10.9191 22C9.74247 21.0963 8.57484 20.181 7.41641 19.2541C6.25966 18.3351 5.1029 17.4162 3.89209 16.4974V8.17838ZM15.0813 8.50271L14.1083 8.95676C14.4704 9.15676 14.8381 9.34055 15.2056 9.52433C15.5138 9.68109 15.8165 9.83247 16.1137 9.99454L16.5948 9.77294L17.8921 9.15676L16.5569 8.54596L15.7678 8.17838L15.0867 8.50271H15.0813ZM11.8272 12.7406C12.8867 12.2217 13.9461 11.6919 15.011 11.1622C16.7029 10.3135 18.4002 9.46487 20.1083 8.64866V17.1352L11.8489 21.5081L11.8381 21.2865C11.8218 20.9135 11.8056 20.6 11.8111 20.2055V16.9136C11.8111 15.5243 11.8111 14.1351 11.8272 12.7406ZM8.62183 9.47568C8.18939 9.66487 7.74614 9.85946 7.35156 10.0108C7.87588 10.4162 8.47047 10.7513 9.07047 11.0379C9.48669 10.8054 9.96773 10.5838 10.4381 10.3676L11.2057 10.0108L10.3948 9.55136L9.55694 9.07027C9.26507 9.1892 8.94615 9.32974 8.62183 9.47568ZM11.865 10.0162L13.4164 9.28649L13.8435 9.08649L14.4704 9.41082C14.9353 9.64325 15.4002 9.88103 15.8759 10.1081L14.3084 10.8432L13.8272 11.0648L13.13 10.6865L11.8705 10.0162H11.865ZM11.3677 10.2433L11.3083 10.2703L10.6056 10.6108C10.184 10.8108 9.75698 11.0162 9.36236 11.1892C9.7407 11.5028 10.2002 11.7405 10.6488 11.973L11.2542 12.2974C11.6976 12.0649 12.1516 11.854 12.6057 11.6433L13.4164 11.2595C12.8164 10.9135 12.211 10.5675 11.6002 10.2324C11.5245 10.1676 11.4434 10.2108 11.3677 10.2433Z" fill="white"/>
<path d="M3.89209 7.66486C6.2975 9.27567 8.67588 10.8162 11.1894 12.2595L11.3245 12.3405C11.3245 12.3405 10.903 13.0702 10.9191 13.0811C9.00562 11.827 7.3894 10.454 5.47587 9.18918C4.95695 8.84864 4.43263 8.49188 3.89209 8.17837V7.66486Z" fill="#1D6DAB"/>
<path d="M20.0376 8.146L20.1079 8.10815V8.64871C17.335 9.98387 14.5835 11.4054 11.8268 12.7676C11.2538 12.4001 11.189 12.4757 11.189 12.2703C11.897 11.8919 12.7025 11.6109 13.4214 11.2595L13.8268 11.0649C14.5079 10.746 15.1944 10.4325 15.8754 10.1081C15.9295 10.0757 16.0538 10.0217 16.1133 9.99459C16.7079 9.71356 17.3024 9.4433 17.8917 9.15141L18.2268 8.98925C18.8322 8.71897 19.443 8.44871 20.0376 8.146Z" fill="#BF2824"/>
<path d="M12.0001 20.3946C12.0001 20.3946 11.946 15.1189 11.973 12.6918C11.973 12.7081 11.3297 12.3297 11.1892 12.2702L10.9189 13.0811V22L12.0001 21.427V20.3946Z" fill="#F5D300"/>
</svg>

<svg xmlns="http://www.w3.org/2000/svg" width="24" height="24" fill="none" viewBox="0 0 24 24">
    <path fill="#fff" d="m15.384 2.465-.568.238.433.26c.351.21.702.42 1.07.594l.087-.038c.54-.26 1.075-.524 1.605-.805q-.748-.365-1.503-.714zm-2.281.703-1.503.594 1.103.79 1.66-.72-1.26-.67zm1.935 2.324.676-.27c.335-.14.67-.281 1.005-.411l1.325.686-.265.13c-.454.216-.903.432-1.363.638-.324-.151-.632-.335-.94-.514a22 22 0 0 0-.438-.26m-5.103-.519c-.616.216-1.227.422-1.838.643.487.249.984.487 1.482.72.448-.114.886-.282 1.319-.444l.713-.26q-.57-.32-1.151-.616l-.082-.043c-.097-.054-.205-.108-.313-.043zm1.757 1.043c.432-.173.865-.34 1.314-.486l1.567.648-1.703.865a46 46 0 0 1-1.713-.821zm-4.097.433c-.487.156-.968.308-1.443.475l.518.287c.325.184.65.367.99.503a58 58 0 0 0 1.627-.563l.432-.156-1.021-.52-.455-.232zm7.28 1.027a19 19 0 0 0-.859-.465l-1.946.8c.211.108.411.232.611.357.287.173.579.35.881.497.433-.184.849-.384 1.27-.584l.622-.292zM5.86 7.022l-1.968.643c.19.124.346.254.497.378.227.179.449.357.746.514l2.2-.725zm5.189.648a14 14 0 0 0-1.092-.54l-2.022.767q.343.18.681.368c.325.173.65.346.973.508.433-.124.844-.308 1.26-.497l.762-.325-.557-.286zm6.794-.465-1.713.806.843.389c.422.19.843.378 1.254.595l.335-.157a32 32 0 0 0 1.546-.735zM6.854 8.222l.714-.26.567.314 1.157.654-.854.378c-.432.184-.881.373-1.26.557q-.932-.48-1.762-1.119a58 58 0 0 1 1.438-.524m3.033.713a90 90 0 0 1 1.973-.838c.378.152.73.34 1.092.53l.567.292-1.119.53-.843.394-.487-.26zm-5.995-.757q.81.479 1.584 1.011l1.8 1.19q1.962 1.3 3.93 2.594c-.017 1.427-.081 2.854-.141 4.281-.07 1.584-.135 3.162-.146 4.746a224 224 0 0 1-3.503-2.746 199 199 0 0 0-3.524-2.757zm11.19.325-.974.454c.362.2.73.384 1.098.567.308.157.61.308.908.47l.48-.221 1.298-.616-1.335-.611-.79-.368-.68.325zm-3.255 4.238c1.06-.52 2.12-1.05 3.184-1.579 1.692-.849 3.39-1.697 5.097-2.513v8.486l-8.26 4.373-.01-.221c-.016-.373-.032-.687-.027-1.081v-3.292c0-1.39 0-2.779.016-4.173M8.622 9.476c-.433.189-.876.383-1.27.535.524.405 1.118.74 1.718 1.027a20 20 0 0 1 1.368-.67l.768-.357-.811-.46-.838-.48c-.292.118-.61.259-.935.405m3.243.54 1.551-.73.428-.2.626.325c.465.232.93.47 1.406.697l-1.568.735-.48.222-.698-.378-1.26-.67zm-.497.227-.06.027-.702.34c-.422.2-.849.406-1.244.58.379.313.838.55 1.287.783l.605.324a31 31 0 0 1 1.352-.654l.81-.384c-.6-.345-1.205-.691-1.816-1.027-.075-.064-.157-.021-.232.011"/>
    <path fill="#1D6DAB" d="M3.892 7.665c2.406 1.61 4.784 3.151 7.297 4.594l.136.082s-.422.73-.406.74c-1.913-1.254-3.53-2.627-5.443-3.892-.519-.34-1.043-.697-1.584-1.01z"/>
    <path fill="#BF2824" d="m20.038 8.146.07-.038v.54c-2.773 1.336-5.524 2.757-8.281 4.12-.573-.368-.638-.292-.638-.498.708-.378 1.514-.66 2.232-1.01l.406-.195c.68-.319 1.367-.633 2.048-.957.055-.032.179-.086.238-.113.595-.281 1.19-.552 1.779-.844l.335-.162c.605-.27 1.216-.54 1.81-.843"/>
    <path fill="#F5D300" d="M12 20.395s-.054-5.276-.027-7.703c0 .016-.643-.362-.784-.422l-.27.811V22L12 21.427z"/>
</svg>
